X:570
T: Katzenlied (269), S.574
N: T0458
O: Luxemburg
S: Singendes Volk, Esch-Alzette, 1937 posth.]
N: Rammeldingen, J.P. Gloden, 25.2.1934
R: ???]
M: 2/4
L: 1/16
K: F
c2c2A2F2 | c2ccA4
B2B2A2F2 | G2G2F4 | F4A2F2 | c4z4
c2c2A2F2 | c2ccA4
B2B2A2F2 | G2G2F4
F4A4 | c4z4 | c2c2B2E2 | F4z4

